X:1
T:Believe, and Keep on Believing
T:Believe, and Keep on Believing
T:James McGranahan
T:Arr. from W. L. by Daniel W. Whittle, 1887
T:Public Domain Courtesy of the Cyber Hymnal™
T:Public Domain Courtesy of the Cyber Hymnal™
C:James McGranahan
Z:Public Domain
Z:Courtesy of the Cyber Hymnal™
%%score ( 1 2 ) ( 3 4 )
L:1/8
Q:1/4=83
M:6/8
K:Bb
V:1 treble 
V:2 treble 
V:3 bass 
V:4 bass 
V:1
 [DF]/[DF]/ | [DB]>[EB][FB] [GB][FA][EG] | [EG][DF][B,D] [DF]2 [DF] | [DB]>[DB][DB] [DB][Ec][Fd] | %4
w: 1.~I be-|lieved in God’s won- der- ful|mer- cy and grace, Be-|lieved in the smile of His|
w: 2.~I be-|lieved in the work of my|cru- ci- fied Lord, Be-|lieved in re- demp- tion a-|
w: 3.~I be-|lieved in the heart that was|o- pened for me, Be-|lieved in the love flow- ing|
w: 4.~I be-|lieved in Him- self, as the|true liv- ing One, Be-|lieved in His pre- sence on|
 [=Ed][Ec][Ec] [Fc]2 [Fc] | [Fd]>[Ge][Fd] [Fd][Ec][DB] | [GB]>[Gc][GB] [GB]2 [EA]/[EG]/ | %7
w: re- con- ciled face, Be-|lieved in His mes- sage of|par- don and peace, I be-|
w: lone thro’ His blood, Be-|lieved in my Sav- ior by|trust- ing His Word; I be-|
w: bless- èd and free, Be-|lieved that my sins were all|nailed to the tree; I be-|
w: high on the throne, Be-|lieved in His com- ing in|glo- ry full soon; I be-|
 [DF]>[DB][DB] [FA][Fc]>[EF] | [EF] [DB]4 ||"^Refrain" F | [Ec]>[Ec][Ec] [Ec][Fd][Ec] | %11
w: lieved, and I keep on be-|liev- ing.|||
w: lieved, and I keep on be-|liev- ing.|||
w: lieved, and I keep on be-|liev- ing.|||
w: lieved, and I keep on be-|liev- ing.|||
 [Ec][DB][EG] [DF]2 [DF] | [DB]>[EB][FB] [GB][Ac][Bd] | [Bd][Bc][Bc] [Ac]2 F | %14
w: |||
w: |||
w: |||
w: |||
 [Fd]>[Fd][Fd] [Fe]>[Fd][Ec] | [DB][DB][DB] c!fermata!B[EG] | [DF]>[DB][DB] [FA][Fc]>[EF] | %17
w: |||
w: |||
w: |||
w: |||
 [EF] [DB]4 |] %18
w: |
w: |
w: |
w: |
V:2
 x | x6 | x6 | x6 | x6 | x6 | x6 | x6 | x5 || F | x6 | x6 | x6 | x5 F | x6 | x3 E2 x | x6 | x5 |] %18
V:3
 [B,,B,]/[B,,B,]/ | [B,,B,]>[C,B,][D,B,] [E,B,][E,B,][E,B,] | %2
w: ~ ~|~ ~ ~ ~ ~ ~|
 [B,,B,][B,,B,][B,,F,] [B,,B,]2 [B,,B,] | [B,,F,]>[B,,F,][B,,F,] [B,,F,][B,,B,][B,,B,] | %4
w: ~ ~ ~ ~ ~|~ ~ ~ ~ ~ ~|
 [C,B,][C,B,][C,B,] [F,A,]2 [F,A,] | [B,,B,]>[B,,B,][B,,B,] [B,,B,][B,,F,][B,,F,] | %6
w: ~ ~ ~ ~ ~|~ ~ ~ ~ ~ ~|
 E,>[E,G,][E,B,] [E,B,]2 [E,B,]/[E,B,]/ | [F,B,]>[F,B,][F,B,] [F,C][F,E]>[F,A,] | %8
w: ~ ~ ~ ~ ~ ~|~ ~ ~ ~ ~ ~|
 [B,,C] [B,,B,]4 || F, | [F,A,]>[F,A,][F,A,] [F,A,][F,A,][F,A,] | %11
w: ~ ~|Be-|lieve! and the feel- ing may|
 [B,,B,][B,,B,][B,,B,] [B,,B,]2 [B,,B,] | [B,,B,]>[C,B,][D,B,] [G,D][G,D][G,D] | %13
w: come or may go, Be-|lieve in the Word, that was|
 [C,=E][C,E][C,E] [F,F]2 F, | [B,,B,]>[B,,B,][B,,B,] [F,A,]>[F,A,][F,A,] | %15
w: writ- ten to show That|all who be- lieve, their sal-|
 [G,B,][G,B,][G,B,] !fermata![E,G,]2 [E,B,] | [F,B,]>[F,B,][F,B,] [F,C][F,E]>[F,A,] | %17
w: va- tion may know, Be-|lieve and keep right on be-|
 [B,,C] [B,,B,]4 |] %18
w: liev- ing.|
V:4
 x | x6 | x6 | x6 | x6 | x6 | E,3/2 x9/2 | x6 | x5 || F, | x6 | x6 | x6 | x5 F, | x6 | x6 | x6 | %17
 x5 |] %18

